X:3543
L:1/8
Q:3/8=80
M:3/4
K:C
|: GF | EG !>!e3 d | cE G3 c | BDFGBe | cE G3 F | EG !>!e3 d | cE G3 c | BDFGBd | c2!fine! z2 :: 
 e2 | dc A3 ^F | GB d3 d | ed cD^FA | Gd g3 e | dc A3 ^F | GB d3 d | ed cD^FA |!D.C.! G4 :|

